X: 7
T: Missa Coda di pavon / Gloria
N: Derived from Mar1002b-Missa_Coda_di_pavon-Gloria.krn
C: Johannes Martini
%%abc-version 2.0
%%abcx-abcm2ps-target-version 5.9.1 (29 Sep 2008)
%%abc-creator hum2abc beta
%%abcx-conversion-date 2019/02/17 07:19:40
%%abc-edited-by Jesse Rodin
%%abc-edited-by Chris Gage 10-31-2013
%%abcx-initial-encoding-date 2014/06/21/
%%humdrum-veritas 1000358004
%%humdrum-veritas-data 4200121913
%%linebreak <none>
%%barnumbers 0
L: 1/4
M: 4/2
Q: 1/2=120
%%staves [1 2 3 4]
V: 1 clef=treble
V: 2 clef=treble-8
V: 3 clef=treble-8
V: 4 clef=bass
K: C
[V:1] G4G2G2 | 
[V:2] d8 | 
[V:3] g4g2g2 | 
[V:4] G,4G,2G,2 | 
[V:1] A4A2A2 | 
[V:2] d4d4 | 
[V:3] f4f2f2 | 
[V:4] D,4D,2D,2 | 
[V:1] B2B2B4 | 
[V:2] d4g4 | 
[V:3] g2fed4 | 
[V:4] G,4G,4 | 
[V:1] c2BAG4 | 
[V:2] g8 | 
[V:3] c4e4 | 
[V:4] C,4C,2C,2 | 
[V:1] c4B2A2- | 
[V:2] g4g2f2- | 
[V:3] e4d4 | 
[V:4] C,4G,2D,2 | 
[V:1] AGG4^F2 | 
[V:2] f2e2d4 | 
[V:3] c2B2A4 | 
[V:4] F,2G,2D,4 | 
[V:1] G4z2D2 | 
[V:2] B2e2d2g2- | 
[V:3] G4B4 | 
[V:4] E,2C,2G,4 | 
[V:1] E2E2D4 | 
[V:2] g2g2g4 | 
[V:3] c2c2B4 | 
[V:4] C,4G,4 | 
[V:1] E2F2G4 | 
[V:2] g4c4- | 
[V:3] c2d2e4 | 
[V:4] C,8 | 
[V:1] A2c2B4 | 
[V:2] c4d4 | 
[V:3] f2e2g4 | 
[V:4] F,2A,2G,4 | 
[V:1] c4d2e2- | 
[V:2] z2c2f2e2 | 
[V:3] e4f2g2 | 
[V:4] A,4D,2C,2 | 
[V:1] edc4B2 | 
[V:2] g2a2g4 | 
[V:3] e2f2d4 | 
[V:4] C2F,2G,4 | 
[V:1] c4z2G2 | 
[V:2] e4e2e2 | 
[V:3] c8 | 
[V:4] C,8 | 
[V:1] A2c3BA2- | 
[V:2] f4g2c2 | 
[V:3] c4c4 | 
[V:4] F,4C,2F,2- | 
[V:1] A2G2A2GF | 
[V:2] f2g2f4 | 
[V:3] c2c4c2 | 
[V:4] F,2E,2F,3E, | 
[V:1] E8 | 
[V:2] g8 | 
[V:3] c8 | 
[V:4] C,8 | 
[V:1] D4E2E2 | 
[V:2] z4c4 | 
[V:3] z8 | 
[V:4] G,2z2A,2C2 | 
[V:1] D2D2C4 | 
[V:2] B2B2c2BA | 
[V:3] z8 | 
[V:4] G,4z2C,2 | 
[V:1] G2FED4 | 
[V:2] G2A2B3A | 
[V:3] z8 | 
[V:4] E,2F,2G,4 | 
[V:1] C4z2G2 | 
[V:2] c2e4c2 | 
[V:3] z8 | 
[V:4] z2C,2C,2E,2 | 
[V:1] A2c4B2 | 
[V:2] f2e2d4 | 
[V:3] z8 | 
[V:4] D,2C,2G,4 | 
[V:1] c2B2G2A2- | 
[V:2] c2d2e2f2- | 
[V:3] z8 | 
[V:4] A,2G,2E,2D,2- | 
[V:1] AGFED2G2- | 
[V:2] fedcB2G2 | 
[V:3] z8 | 
[V:4] D,E,F,2G,3F, | 
[V:1] GDG3^FFE | 
[V:2] B2c2A4 | 
[V:3] z8 | 
[V:4] E,D,C,2D,4 | 
[V:1] G4z2G2 | 
[V:2] d4d2d2 | 
[V:3] G4G2G2 | 
[V:4] z2G,2_B,3A, | 
[V:1] A2A2c4 | 
[V:2] f4e2f2 | 
[V:3] c4c4 | 
[V:4] F,4A,4 | 
[V:1] B4c4 | 
[V:2] g4z2G2 | 
[V:3] z2d2e2e2 | 
[V:4] G,4E,2E,2 | 
[V:1] d2d2G4 | 
[V:2] A2B2c4- | 
[V:3] f4e2e2 | 
[V:4] D,4C,4 | 
[V:1] A2A2B4 | 
[V:2] c4g4 | 
[V:3] f4d4 | 
[V:4] F,4G,4 | 
[V:1] A2d3cBA | 
[V:2] e2f3edc | 
[V:3] c4f4 | 
[V:4] A,4F,4 | 
[V:1] B2G4c2- | 
[V:2] e2f2g4 | 
[V:3] g4e4 | 
[V:4] E,4C,4 | 
[V:1] c2B2B3A | 
[V:2] g8 | 
[V:3] d8 | 
[V:4] G,8 | 
[V:1] c4z4 | 
[V:2] e4z4 | 
[V:3] c4z4 | 
[V:4] C,4z4 | 
[V:1] (3G4G4A4 | 
[V:2] (3e4e4f4 | 
[V:3] z8 | 
[V:4] (3C4C4A,4 | 
[V:1] (3B4B4c4 | 
[V:2] (3g4g4e4 | 
[V:3] z8 | 
[V:4] (3G,4G,4A,4 | 
[V:1] (3:2:2d8c4 | 
[V:2] (3:2:4f4d4e2f2 | 
[V:3] z8 | 
[V:4] (3:2:2D,8A,4 | 
[V:1] (3:2:2B4A8 | 
[V:2] (3:2:4g6^f2^f2e2 | 
[V:3] z8 | 
[V:4] (3:2:2G,4D8 | 
[V:1] (3:2:2G8c4- | 
[V:2] (3:2:2g8z4 | 
[V:3] (3:2:2d8e4 | 
[V:4] (3:2:2G,8C,4- | 
[V:1] (3c4B4d4 | 
[V:2] (3:2:2g8a4 | 
[V:3] (3e4d4f4 | 
[V:4] (3C,4G,4D,4 | 
[V:1] (3e6d2c4 | 
[V:2] (3:2:5a2g fe4^f4 | 
[V:3] (3:2:2e4c8 | 
[V:4] (3:2:2A,4A,8 | 
[V:1] B8 ||  
[V:2] g8 ||  
[V:3] d8 ||  
[V:4] G,8 ||  
[V:1]  [K:C] [K:clef=treble][M:4/2]G2G2A2c2- | 
[V:2]  [K:C] [K:clef=treble-8][M:4/2]e4f2e2 | 
[V:3]  [K:C] [K:clef=treble-8][M:4/2]z8 | 
[V:4]  [K:C] [K:clef=bass][M:4/2]C,4F,2C,2 | 
[V:1] c2B2c3B | 
[V:2] d4c4 | 
[V:3] z8 | 
[V:4] G,4C,4 | 
[V:1] G4B4 | 
[V:2] e4g4 | 
[V:3] c4d4 | 
[V:4] C,4G,4 | 
[V:1] c4d4 | 
[V:2] e2e2a3g | 
[V:3] e4f4 | 
[V:4] C,4z4 | 
[V:1] (3:2:2e8f4 | 
[V:2] (3:2:2g8a4 | 
[V:3] (3:2:2c8d4 | 
[V:4] (3C,4E,4D,4 | 
[V:1] (3:2:2d8c4 | 
[V:2] (3:2:2a8a4 | 
[V:3] (3:2:2f8e4 | 
[V:4] (3:2:2D,8A,4 | 
[V:1] (3d4f4e4 | 
[V:2] (3f6e2c4 | 
[V:3] (3:2:2d8e4 | 
[V:4] (3:2:2D,8A,4 | 
[V:1] (3d4e6d2 | 
[V:2] (3f4e4a4 | 
[V:3] (3f4g4c4 | 
[V:4] (3D4C4A,4 | 
[V:1] (3:2:4c6B2B2A2 | 
[V:2] (3:2:2g8g4 | 
[V:3] (3:2:2e4d8 | 
[V:4] (3:2:2C4G,8 | 
[V:1] c8 ||  
[V:2] e8 ||  
[V:3] c8 ||  
[V:4] C,8 ||  
[V:1]  [K:C] [K:clef=treble][M:4/2]G8 | 
[V:2]  [K:C] [K:clef=treble-8][M:4/2]d8 | 
[V:3]  [K:C] [K:clef=treble-8][M:4/2]g8 | 
[V:4]  [K:C] [K:clef=bass][M:4/2]G,8 | 
[V:1] B4B4 | 
[V:2] d4d4 | 
[V:3] g8 | 
[V:4] G,4G,4 | 
[V:1] A8 | 
[V:2] d4d4 | 
[V:3] f8 | 
[V:4] D,8 | 
[V:1] B4d4- | 
[V:2] d8 | 
[V:3] g8 | 
[V:4] G,8 | 
[V:1] d2c2c4- | 
[V:2] z8 | 
[V:3] e4c4 | 
[V:4] A,4A,4 | 
[V:1] c2B2B3A | 
[V:2] g8 | 
[V:3] d8 | 
[V:4] G,8 | 
[V:1] c8 | 
[V:2] g4g4 | 
[V:3] c4c4 | 
[V:4] C,8 | 
[V:1] A6G2 | 
[V:2] f4f4 | 
[V:3] c4d4 | 
[V:4] F,6E,2 | 
[V:1] G4c4 | 
[V:2] g8- | 
[V:3] e8 | 
[V:4] C,8 | 
[V:1] B4A4- | 
[V:2] g4e4 | 
[V:3] z4c4 | 
[V:4] G,4A,4 | 
[V:1] A2G2G4- | 
[V:2] f4e4 | 
[V:3] d4B4 | 
[V:4] F,4G,4 | 
[V:1] G4^F4 | 
[V:2] d8 | 
[V:3] A8 | 
[V:4] D,8 | 
[V:1] G8 | 
[V:2] B8 | 
[V:3] G8- | 
[V:4] z4G,4 | 
[V:1] z4D4 | 
[V:2] B4B4 | 
[V:3] G8 | 
[V:4] G,8 | 
[V:1] E8 | 
[V:2] c6BA | 
[V:3] z4c4 | 
[V:4] C,8- | 
[V:1] E4E4 | 
[V:2] G8 | 
[V:3] c8 | 
[V:4] C,8 | 
[V:1] D8 | 
[V:2] z4g4 | 
[V:3] B8 | 
[V:4] G,8- | 
[V:1] D8 | 
[V:2] g4g4 | 
[V:3] B4B4 | 
[V:4] G,8 | 
[V:1] E6F2 | 
[V:2] g8- | 
[V:3] c8 | 
[V:4] C,8 | 
[V:1] G8 | 
[V:2] g4d4 | 
[V:3] z8 | 
[V:4] E,4G,4 | 
[V:1] A4c4 | 
[V:2] f4e4 | 
[V:3] c8 | 
[V:4] F,4A,4 | 
[V:1] _B8 | 
[V:2] g8 | 
[V:3] d8 | 
[V:4] G,4_B,4 | 
[V:1] c4A4 | 
[V:2] c8 | 
[V:3] e4f4 | 
[V:4] A,4F,4 | 
[V:1] B4B4 | 
[V:2] B6c2 | 
[V:3] d4g4- | 
[V:4] G,8 | 
[V:1] A8 | 
[V:2] d8 | 
[V:3] g4^f4 | 
[V:4] D,8 | 
[V:1] G8 | 
[V:2] z4G4- | 
[V:3] g8 | 
[V:4] E,8 | 
[V:1] c4e4 | 
[V:2] G4A4 | 
[V:3] e8 | 
[V:4] C,8 | 
[V:1] d3cc4- | 
[V:2] _B4G4 | 
[V:3] f4e4 | 
[V:4] _B,,4C,4 | 
[V:1] c2B2B2A2 | 
[V:2] z4g4 | 
[V:3] d8 | 
[V:4] G,8 | 
[V:1] c8 | 
[V:2] g8 | 
[V:3] c8- | 
[V:4] C,8- | 
[V:1] z4G4 | 
[V:2] e8 | 
[V:3] c8- | 
[V:4] C,8 | 
[V:1] c6B2 | 
[V:2] g8 | 
[V:3] c8- | 
[V:4] z4C,4 | 
[V:1] A6GF | 
[V:2] f8 | 
[V:3] c8 | 
[V:4] F,6E,2 | 
[V:1] E8 ||  
[V:2] g8 ||  
[V:3] c8 ||  
[V:4] C,8 ||  
[V:1]  [K:C] [K:clef=treble][M:4/2]z8 | 
[V:2]  [K:C] [K:clef=treble-8][M:4/2]c8 | 
[V:3]  [K:C] [K:clef=treble-8][M:4/2]z8 | 
[V:4]  [K:C] [K:clef=bass][M:4/2]C,8 | 
[V:1] z4D4 | 
[V:2] B4B4 | 
[V:3] z8 | 
[V:4] G,4G,4 | 
[V:1] E4E4 | 
[V:2] c6B2 | 
[V:3] z8 | 
[V:4] C,4C4- | 
[V:1] D8 | 
[V:2] G8 | 
[V:3] z8 | 
[V:4] C2B,A,B,4 | 
[V:1] C4G4- | 
[V:2] A4B4 | 
[V:3] z8 | 
[V:4] C4G,4 | 
[V:1] G4F4 | 
[V:2] G4c4- | 
[V:3] z8 | 
[V:4] E,4F,4 | 
[V:1] D8 | 
[V:2] c4B4 | 
[V:3] z8 | 
[V:4] G,8 | 
[V:1] C4z4 | 
[V:2] c6d2 | 
[V:3] z8 | 
[V:4] C,8 | 
[V:1] G4A4 | 
[V:2] e4f4 | 
[V:3] z8 | 
[V:4] z4F,4 | 
[V:1] c4B4 | 
[V:2] e4d2e2- | 
[V:3] z8 | 
[V:4] C,4G,4 | 
[V:1] G2A3GFE | 
[V:2] e2c2d3c | 
[V:3] z8 | 
[V:4] E,2F,2D,2G,2- | 
[V:1] D2G2E2A2- | 
[V:2] BAG2c2A2 | 
[V:3] z8 | 
[V:4] G,F,E,D,C,2F,2 | 
[V:1] AGG4^F2 | 
[V:2] d2B2A4 | 
[V:3] z8 | 
[V:4] D,2G,2D,4 | 
[V:1] G4B4 | 
[V:2] G4g4 | 
[V:3] G8 | 
[V:4] D8 | 
[V:1] c4d4 | 
[V:2] f3eg4- | 
[V:3] A4G4 | 
[V:4] C4B,4 | 
[V:1] d4c4 | 
[V:2] g2e2f4 | 
[V:3] B4c4 | 
[V:4] G,4A,4 | 
[V:1] B6AG | 
[V:2] g8 | 
[V:3] d8 | 
[V:4] G,6F,E, | 
[V:1] F4A4 | 
[V:2] a4f4- | 
[V:3] d8- | 
[V:4] D,8 | 
[V:1] B4c2B2 | 
[V:2] f2g2f4- | 
[V:3] d4c4 | 
[V:4] D,4F,4- | 
[V:1] A2G2G4- | 
[V:2] f2e2d4- | 
[V:3] d4B4 | 
[V:4] F,4G,4 | 
[V:1] G2^F2F2E2 | 
[V:2] d2c2d4 | 
[V:3] A8 | 
[V:4] D,8 | 
[V:1] G8 | 
[V:2] B4e4- | 
[V:3] G8 | 
[V:4] E,4C,4- | 
[V:1] z8 | 
[V:2] e2d2g4 | 
[V:3] c8 | 
[V:4] C,2D,2E,4 | 
[V:1] z8 | 
[V:2] f3ed4- | 
[V:3] z8 | 
[V:4] D,4F,4 | 
[V:1] z8 | 
[V:2] d2^cB^c4 | 
[V:3] z8 | 
[V:4] E,8 | 
[V:1] z4A4 | 
[V:2] d2f3ga2- | 
[V:3] z8 | 
[V:4] D,8 | 
[V:1] A4A4 | 
[V:2] agfef4 | 
[V:3] z4d4 | 
[V:4] D,4D,4 | 
[V:1] B8 | 
[V:2] g8- | 
[V:3] d4d4 | 
[V:4] G,8 | 
[V:1] c8 | 
[V:2] g8 | 
[V:3] e8 | 
[V:4] C,8 | 
[V:1] d8 | 
[V:2] a6g2 | 
[V:3] f6e2 | 
[V:4] z8 | 
[V:1] z4e4 | 
[V:2] g6fe | 
[V:3] c8 | 
[V:4] C,8 | 
[V:1] f6e2 | 
[V:2] d4_B4 | 
[V:3] z4d4 | 
[V:4] _B,,8- | 
[V:1] d8 | 
[V:2] _B6G2 | 
[V:3] f8 | 
[V:4] B,,8 | 
[V:1] c8 | 
[V:2] G4c4 | 
[V:3] e8 | 
[V:4] C,8 | 
[V:1] z4f4 | 
[V:2] A4B4 | 
[V:3] d8 | 
[V:4] D,8 | 
[V:1] e4c4 | 
[V:2] c6B2 | 
[V:3] z4e4 | 
[V:4] A,8 | 
[V:1] d8 | 
[V:2] A8 | 
[V:3] f8 | 
[V:4] D,4F,4 | 
[V:1] e8 | 
[V:2] z4c4 | 
[V:3] g8 | 
[V:4] C,8 | 
[V:1] f6e2 | 
[V:2] _B4d4- | 
[V:3] d8 | 
[V:4] z4_B,,4- | 
[V:1] d2c2c4- | 
[V:2] d4g4- | 
[V:3] f4e4 | 
[V:4] B,,4C,4 | 
[V:1] c4B4 | 
[V:2] g4g4 | 
[V:3] d8 | 
[V:4] G,8 | 
[V:1] c8 |]  
[V:2] g8 |]  
[V:3] c8 |]  
[V:4] C,8 |]  



% FRACTION = 0.875BUT SHOULD BE 0
